static/img/common/ico-photo.svg

<svg width="14" height="13" viewBox="0 0 14 13" fill="none" xmlns="http://www.w3.org/2000/svg">
<g clip-path="url(#clip0_71_23)">
<path d="M12.11 2.08997H1.67C0.747684 2.08997 0 2.83765 0 3.75997V10.55C0 11.4723 0.747684 12.22 1.67 12.22H12.11C13.0323 12.22 13.78 11.4723 13.78 10.55V3.75997C13.78 2.83765 13.0323 2.08997 12.11 2.08997Z" fill="#A0A7BB"/>
<path d="M8.04 0H5.73C4.75798 0 3.97 0.787979 3.97 1.76V4.86C3.97 5.83202 4.75798 6.62 5.73 6.62H8.04C9.01202 6.62 9.8 5.83202 9.8 4.86V1.76C9.8 0.787979 9.01202 0 8.04 0Z" fill="#A0A7BB"/>
<path d="M6.89 3.80005C5.12 3.80005 3.68 5.24005 3.68 7.01005C3.68 8.78005 5.12 10.22 6.89 10.22C8.66 10.22 10.1 8.78005 10.1 7.01005C10.1 5.24005 8.66 3.80005 6.89 3.80005ZM6.89 9.20005C5.68 9.20005 4.7 8.22005 4.7 7.01005C4.7 5.80005 5.68 4.82005 6.89 4.82005C8.1 4.82005 9.08 5.80005 9.08 7.01005C9.08 8.22005 8.1 9.20005 6.89 9.20005Z" fill="white"/>
</g>
<defs>
<clipPath id="clip0_71_23">
<rect width="13.78" height="12.22" fill="white"/>
</clipPath>
</defs>
</svg>

<svg xmlns="http://www.w3.org/2000/svg" width="14" height="13" fill="none" viewBox="0 0 14 13"><g clip-path="url(#a)"><path fill="#a0a7bb" d="M12.11 2.09H1.67A1.67 1.67 0 0 0 0 3.76v6.79c0 .922.748 1.67 1.67 1.67h10.44a1.67 1.67 0 0 0 1.67-1.67V3.76a1.67 1.67 0 0 0-1.67-1.67"/><path fill="#a0a7bb" d="M8.04 0H5.73a1.76 1.76 0 0 0-1.76 1.76v3.1c0 .972.788 1.76 1.76 1.76h2.31A1.76 1.76 0 0 0 9.8 4.86v-3.1A1.76 1.76 0 0 0 8.04 0"/><path fill="#fff" d="M6.89 3.8c-1.77 0-3.21 1.44-3.21 3.21s1.44 3.21 3.21 3.21 3.21-1.44 3.21-3.21S8.66 3.8 6.89 3.8m0 5.4a2.19 2.19 0 1 1-.001-4.379A2.19 2.19 0 0 1 6.89 9.2"/></g><defs><clipPath id="a"><path fill="#fff" d="M0 0h13.78v12.22H0z"/></clipPath></defs></svg>
